src/assets/duotone/Designtools.svg

<svg width="24" height="24" viewBox="0 0 24 24"  xmlns="http://www.w3.org/2000/svg">
<path d="M21.0401 13.2799L20.1201 12.3799L12.3701 20.1199L13.3001 21.0499C14.0801 21.8299 14.8901 22.2199 15.6901 22.2199C16.4901 22.2199 17.3001 21.8299 18.0801 21.0499L21.0401 18.0899C22.6301 16.4899 22.6301 14.8799 21.0401 13.2799Z" />
<path d="M10.6898 2.92994C9.11976 1.35994 7.46977 1.35994 5.89977 2.92994L2.92977 5.88994C1.36977 7.45994 1.36977 9.10994 2.92977 10.6799L3.84977 11.5999L11.5998 3.84994L10.6898 2.92994Z" />
<path opacity="0.4" d="M21.8098 3.94009C20.4998 7.21009 17.5098 11.4801 14.6598 14.2701C14.2498 11.6901 12.1898 9.67009 9.58984 9.31009C12.3898 6.45009 16.6898 3.42009 19.9698 2.10009C20.5498 1.88009 21.1298 2.05009 21.4898 2.41009C21.8698 2.79009 22.0498 3.36009 21.8098 3.94009Z" />
<path d="M14.66 14.2701C14.16 14.7601 13.66 15.2101 13.18 15.5901L11.21 17.1701C10.96 17.3501 10.71 17.5001 10.43 17.6201C10.43 17.4301 10.41 17.2401 10.39 17.0401C10.28 16.2101 9.90002 15.4201 9.23002 14.7501C8.54002 14.0701 7.72002 13.6801 6.87002 13.5701C6.67002 13.5501 6.46002 13.5401 6.27002 13.5501C6.38002 13.2401 6.55002 12.9501 6.76002 12.7101L8.32002 10.7401C8.69002 10.2701 9.12002 9.79006 9.59002 9.31006C12.19 9.67006 14.25 11.6901 14.66 14.2701Z" />
<path opacity="0.4" d="M10.4298 17.6198C10.4298 18.7198 10.0098 19.7698 9.20976 20.5598C8.59976 21.1798 7.77977 21.5998 6.77977 21.7198L4.32976 21.9898C2.98976 22.1398 1.83976 20.9898 1.98976 19.6398L2.25976 17.1798C2.49976 14.9898 4.32976 13.5898 6.26976 13.5498C6.45976 13.5398 6.66976 13.5498 6.86976 13.5698C7.71976 13.6798 8.53976 14.0698 9.22976 14.7498C9.89976 15.4198 10.2798 16.2098 10.3898 17.0398C10.4098 17.2398 10.4298 17.4298 10.4298 17.6198Z" />
</svg>

<?xml version="1.0" encoding="UTF-8"?>
<svg width="24" height="24" viewBox="0 0 24 24" xmlns="http://www.w3.org/2000/svg">
 <path d="m21.04 13.28-0.92-0.9-7.75 7.74 0.93 0.93c0.78 0.78 1.59 1.17 2.39 1.17s1.61-0.39 2.39-1.17l2.96-2.96c1.59-1.6 1.59-3.21 0-4.81z"/>
 <path d="m10.69 2.9299c-1.57-1.57-3.22-1.57-4.79 0l-2.97 2.96c-1.56 1.57-1.56 3.22 0 4.79l0.92 0.92 7.75-7.75-0.91-0.92z"/>
 <path d="m21.81 3.9401c-1.31 3.27-4.3 7.54-7.15 10.33-0.41-2.58-2.47-4.6-5.07-4.96 2.8-2.86 7.1-5.89 10.38-7.21 0.58-0.22 1.16-0.05 1.52 0.31 0.38 0.38 0.56 0.95 0.32 1.53z" opacity=".4"/>
 <path d="m14.66 14.27c-0.5 0.49-1 0.94-1.48 1.32l-1.97 1.58c-0.25 0.18-0.5 0.33-0.78 0.45 0-0.19-0.02-0.38-0.04-0.58-0.11-0.83-0.48998-1.62-1.16-2.29-0.69-0.68-1.51-1.07-2.36-1.18-0.2-0.02-0.41-0.03-0.6-0.02 0.11-0.31 0.28-0.6 0.49-0.84l1.56-1.97c0.37-0.47 0.8-0.95004 1.27-1.43 2.6 0.36 4.66 2.38 5.07 4.96z"/>
 <path d="m10.43 17.62c0 1.1-0.42 2.15-1.22 2.94-0.61 0.62-1.43 1.04-2.43 1.16l-2.45 0.27c-1.34 0.15-2.49-1-2.34-2.35l0.27-2.46c0.24-2.19 2.07-3.59 4.01-3.63 0.19-0.01 0.4 0 0.6 0.02 0.85 0.11 1.67 0.5 2.36 1.18 0.67 0.67 1.05 1.46 1.16 2.29 0.02 0.2 0.04 0.39 0.04 0.58z" opacity=".4"/>
</svg>
